X:1
T:B b Major Oliver Holden, 1800
T:Isaac Watts, 1719 (Psalm 126)   88. 88. (L. M.)
T:Joy Was Our Song No copyright..
%%score [ 1 2 3 4 ]
L:1/8
M:4/4
K:Bb
V:1 treble nm="Treble" snm="Tr."
V:2 treble nm="Counter" snm="C."
V:3 treble-8 nm="Tenor" snm="T."
V:4 bass nm="Bass" snm="B."
V:1
 F4 F2 BA | G2 F2 G2 A2 | B8 | d4 d2 d2 | (d2 B4) c2 | (d2 B2 c2) d2 | c8 | F4 B2 B2 | A2 A2 B4 | %9
w: 1.~When God re- *|stored our cap- tive|state,|Joy was our|song, * and|grace~ * * our|theme.|The grace be-|yond our hopes|
w: 2.~The scof- fer *|owns Thy hand, and|pays|Un- wil- ling|hon- * or|to~ * * Thy|name.|While we with|plea- sure shout|
 c4 B4- | B2 c2 (d2 B2 | c2) Bc (d2 B2 | c2) Bc d4 | c4 c4- | c4 z2 Bc | (d2 f4) e2 | %16
w: so great~|* That joy~ *|* ap- * peared~ *|* a * pain-|ted dream,|* That *|joy~ * ap-|
w: Thy praise~|* With cheer- *|* ful * notes~ *|* Thy * love|pro- claim,|* With *|cheer- * ful|
 (d2 e2 f2) ge | d4 c4 | B8 |] %19
w: peared~ * * a *|pain- ted|dream.|
w: notes~ * * Thy *|love pro-|claim.|
V:2
 D4 D2 FG | G2 D2 D2 F2 | F8 | F4 F2 F2 | (F2 G4) F2 | D6 G2 | F8 | F4 DF F2 | F2 F2 F4 | F4 F4- | %10
 F2 E2 (F2 G2 | F2) FE (F2 G2 | A2) FE F4 | A4 A4- | A4 z2 FE | (F2 D4) E2 | (D2 E2 F2) EG | %17
 F4 F4 | F8 |] %19
V:3
 B4 B2 dc | B2 A2 B2 c2 | d8 | B4 B2 B2 | (B2 d4) c2 | (B2 d2 e2) B2 | A8 | A4 F2 Bd | c2 ce d4 | %9
w: 3.~When we re- *|view our dis- mal|fears,|'Twas hard to|think * they'd|van- * * ish|so;|With God we *|left our * flow-|
w: 4.~The man that *|in his fur- rowed|field|Has scat- tered|seed * with|sad- * * ness|leaves,|Will shout to *|see the * har-|
 e4 d4- | d2 [ce]2 (B2 G2 | A2) GA (B2 G2 | A2) GA B4 | A4 A4- | A4 z2 de | (f2 d2 B2) F2 | %16
w: ing tears,~|* He makes~ *|* our * joys~ *|* like * riv-|ers flow,|* He *|makes~ * * our|
w: vest yield~|* A wel- *|* come * load~ *|* of * joy-|ful sheaves,|* A *|wel- * * come|
 (B2 c2 d2) ec | B4 e4 | d8 |] %19
w: joys~ * * like *|riv- ers|flow.|
w: load~ * * of *|joy- ful|sheaves.|
V:4
 B,,4 B,,2 B,,2 | B,,2 F,2 D,2 F,2 | B,,8 | B,4 B,2 B,2 | B,6 F,2 | D,4 B,,4 | F,8 | F,4 D,2 B,,2 | %8
 F,2 F,2 D,4 | F,4 B,,4- | B,,2 F,2 (B,4 | F,2) D,C, B,,4 | E,4 F,4 | F,4 F,4- | F,4 z2 D,C, | %15
 B,,6 C,2 | (D,2 C,2 B,,2) E,2 | F,4 F,4 | B,,8 |] %19

